X: 7514
T:Northern Nanny
M:C|
O:England
A:North-West
R:Reel
K:D
g2|\
d2B2 ABAG| G4 D4| E2G2 GABG| A4 A2g2|\
d2B2 ABAG| GABG D3D| EFG2 A2B2| e6||
B2|\
c3d ede=f| =f4 efge| dedB ABAG| A6 g2|\
d2B2 ABAG| G4 D2D2| EFG2 B2d2| g6|]
